X:99019
T:Kitty Campbell's Reel
P:Old Rosin the Beau
C:Traditional
R:Jig (8x32)
B:RSCDS Gr-19
Z:Anselm Lingnau <anselm@strathspey.org>
M:6/8
L:1/8
K:A
|:E|"A"A>GA c>BA|[e3c3A3] "D"[f3d3A3]|"A"e>cA A>Bc|"D"F3-F2 E|
    "A"A>GA c>BA|[e3c3A3] "D"[f3d3A3]|"A"e>cA "E7"BAG|"A"A3-A2:|
|:c/d/|"A"e2e "E"efg|"D"a2f a2f|"A"e>cA A>Bc|"D"F3-F2 E|
       "A"A>GA c>BA|[e3c3A3] "D"[f3d3A3]|"A"e>cA "E7"BAG|"A"A3-A2:|
